!!!!SEGMENT: Vin2001-Salve_regina_I--Munich_34
!!!id: Vin2001
!!!AGN: Motet
!!!voices: 6
!!!COM: Jheronimus Vinders
!!!SMS: Munich 34
!!!OTL: Salve regina I (Munich 34)
**kern	**kern	**kern	**kern	**kern	**kern
*part6	*part5	*part4	*part3	*part2	*part1
*staff6	*staff5	*staff4	*staff3	*staff2	*staff1
*I"Bassus	*I"Tenor II	*I"Tenor I	*I"Altus	*I"Superius II	*I"Superius I
*I'B.	*I'T. II	*I'T. I	*I'A.	*I'S. II	*I'S. I
*clefF4	*clefGv2	*clefGv2	*clefG2	*clefG2	*clefG2
*k[]	*k[]	*k[]	*k[]	*k[]	*k[]
*M2/1	*M2/1	*M2/1	*M2/1	*M2/1	*M2/1
*met(C)	*met(C)	*met(C)	*met(C)	*met(C)	*met(C)
=1	=1	=1	=1	=1	=1
!!section: Prima pars: Vita dulcedo
!!!OMD: Prima pars: Vita dulcedo
1E	1r	0r	0r	0r	0r
1D	1A	.	.	.	.
=2	=2	=2	=2	=2	=2
1E	1G	1r	0r	0r	0r
1AA	1A	1A	.	.	.
=3	=3	=3	=3	=3	=3
1BB	1D	1G	0r	0r	1dd
2AA	1r	2A	.	.	2cc
[2D	.	2D	.	.	2dd
=4	=4	=4	=4	=4	=4
4D]	1A	2.F	0r	0r	2a
4C	.	.	.	.	.
2AA	.	.	.	.	2ff
.	.	4E	.	.	.
2C	1G	2C	.	.	2ee
2BB	.	2D	.	.	2dd
=5	=5	=5	=5	=5	=5
2AA	1A	2E	0r	0r	1cc
2.F	.	2D	.	.	.
.	1D	2d	.	.	2r
4E	.	.	.	.	.
2D	.	2f	.	.	2a
=6	=6	=6	=6	=6	=6
2C	2r	2e	0r	0r	2ee
2D	2D	1d	.	.	2ff
1AA	2A	.	.	.	1ee
.	2c	2c#i	.	.	.
=7	=7	=7	=7	=7	=7
2D	2B	1d	0r	0r	2r
2F	2A	.	.	.	2dd
4E	4G	2r	.	.	2gg
4C	2c	.	.	.	.
2D	.	2d	.	.	2ff
.	4B	.	.	.	.
=8	=8	=8	=8	=8	=8
1C	1c	1e	1r	0r	2ee
.	.	.	.	.	1cc
1r	1F	1f	1a	.	.
.	.	.	.	.	2dd
=9	=9	=9	=9	=9	=9
1r	1c	2e	1g	0r	1ee
.	.	2c	.	.	.
1AA	2r	[1f	1a	.	1a
.	[2A	.	.	.	.
=10	=10	=10	=10	=10	=10
1BB	2A]	2f]	1d	0r	1r
.	2G	4e	.	.	.
.	.	4d	.	.	.
1AA	1A	1c	2r	.	2r
.	.	.	2a	.	2ee
=11	=11	=11	=11	=11	=11
2r	1D	1d	2.a	0r	2.ff
2A	.	.	.	.	.
.	.	.	4g	.	4ee
2B	2d	1r	2f	.	2dd
2A	2e	.	2cc	.	2cc
=12	=12	=12	=12	=12	=12
2G	2B	2d	2b	0r	2dd
2F	2.c	2f	2a	.	2a
2E	.	2c	2g	.	2r
.	4G	.	.	.	.
2D	[2A	2d	2f	.	2ff
=13	=13	=13	=13	=13	=13
2C	4A]	2e	2g	0r	2ee
.	4E	.	.	.	.
2BB-X	2F	2r	2d	.	1dd
1AA	1C	2r	1e	.	.
.	.	2A	.	.	2cc#i
=14	=14	=14	=14	=14	=14
1D	1F	2B	1d	0r	0dd
.	.	1A	.	.	.
1BB	1D	.	1r	.	.
.	.	2G#i	.	.	.
=15	=15	=15	=15	=15	=15
1AA	1E	1A	1c	0r	0r
2r	[1F	1D	1d	.	.
2D	.	.	.	.	.
=16	=16	=16	=16	=16	=16
1D	1F]	2r	1f	0r	2r
.	.	2d	.	.	2a
[1C	[1E	2.e	1g	.	2.cc
.	.	4f	.	.	4dd
=17	=17	=17	=17	=17	=17
2C]	1E]	2g	2e	0r	2ee
4BB	.	2c	1a	.	2ee
4AA	.	.	.	.	.
1BB	2r	1d	.	.	1dd
.	2B	.	2g#i	.	.
=18	=18	=18	=18	=18	=18
1AA	2c	1e	1a	0r	1cc
.	2A	.	.	.	.
2r	1B	1r	1d	.	2r
[2D	.	.	.	.	[2ff
=19	=19	=19	=19	=19	=19
2D]	2.A	1r	1e	0r	2ff]
2C	.	.	.	.	1ee
.	4G	.	.	.	.
1D	1F	1A	1f	.	.
.	.	.	.	.	2dd
=20	=20	=20	=20	=20	=20
1C	2.E	1c	1g	0r	0ee
.	4F	.	.	.	.
2r	2G	2B	[1e	.	.
2C	2A	[2c	.	.	.
=21	=21	=21	=21	=21	=21
1C	2G	4c]	1e]	0r	0r
.	.	4B	.	.	.
.	2.A	4A	.	.	.
.	.	4G	.	.	.
[1D	.	1F	[1d	.	.
.	4G	.	.	.	.
.	4F	.	.	.	.
.	4E	.	.	.	.
=22	=22	=22	=22	=22	=22
1D]	1F	2r	1d]	0r	2r
.	.	2A	.	.	2ff
[1C	2E	[1c	2.e	.	2.gg
.	[2G	.	.	.	.
.	.	.	4f	.	4ff
=23	=23	=23	=23	=23	=23
2C]	4G]	2c]	2g	0r	2ee
.	4F	.	.	.	.
2D	2D	2F	2f	.	1dd
1AA	1A	1c	1e	.	.
.	.	.	.	.	2cc#i
=24	=24	=24	=24	=24	=24
1D	1F	1A	[0dl	0r	[0ddl
2r	2F	2A	.	.	.
2D	[2D	[2F	.	.	.
=25	=25	=25	=25	=25	=25
1D	4D]	4F]	0d_	0r	0dd_
.	4E	4G	.	.	.
.	4F	4A	.	.	.
.	4D	4F	.	.	.
1GG	1G	1B-i	.	.	.
=26	=26	=26	=26	=26	=26
0Dl	0Fl	0Al	0d]	0r	0dd]
=27||	=27||	=27||	=27||	=27||	=27||
*M2/1	*M2/1	*M2/1	*M2/1	*M2/1	*M2/1
*met(C|)	*met(C|)	*met(C|)	*met(C|)	*met(C|)	*met(C|)
!!section: Secunda pars: Ad te
!!!OMD: Secunda pars: Ad te
1D	1d	0r	0r	0r	0r
1F	2c	.	.	.	.
.	2A	.	.	.	.
=28	=28	=28	=28	=28	=28
1G	2B-i	0r	1d	0r	0r
.	4A	.	.	.	.
.	4G	.	.	.	.
1A	1F	.	1f	.	.
=29	=29	=29	=29	=29	=29
0r	1B-i	1d	1g	0r	1dd
.	2A	2.f	[1a	.	2cc
.	2D	.	.	.	2dd
.	.	4g	.	.	.
=30	=30	=30	=30	=30	=30
1D	1F	1a	1a]	0r	2a
.	.	.	.	.	2ff
2C	1G	2r	1r	.	2ee
2BB	.	2d	.	.	2dd
=31	=31	=31	=31	=31	=31
1AA	2.A	2.f	0r	0r	1cc
.	4B	4g	.	.	.
1r	2c	2a	.	.	2r
.	2d	2f	.	.	2a
=32	=32	=32	=32	=32	=32
2.AA	2c	4e	0r	0r	2ee
.	.	4c	.	.	.
.	2A	2d	.	.	2ff
4BB	.	.	.	.	.
2C	2G	1c	.	.	1ee
2AA	2A	.	.	.	.
=33	=33	=33	=33	=33	=33
2.D	1F	2r	0r	0r	2r
.	.	2A	.	.	2dd
4F	.	.	.	.	.
2E	2r	4B	.	.	2gg
.	.	2c	.	.	.
2D	2F	.	.	.	2ff
.	.	4B	.	.	.
=34	=34	=34	=34	=34	=34
1C	2G	0c	1r	0r	2ee
.	1A	.	.	.	1cc
1F	.	.	1cc	.	.
.	2F	.	.	.	2dd
=35	=35	=35	=35	=35	=35
2E	2G	0r	2g	0r	1ee
2C	2c	.	1a	.	.
2F	4d	.	.	.	1a
.	4c	.	.	.	.
2E	[2c	.	2g	.	.
=36	=36	=36	=36	=36	=36
1D	2c]	1d	1f	0r	1r
.	2B	.	.	.	.
1C	1c	1g	1e	.	2r
.	.	.	.	.	2ee
=37	=37	=37	=37	=37	=37
2.D	2r	1.f	1a	0r	2.ff
.	2.F	.	.	.	.
4C	.	.	.	.	4ee
2D	.	.	1r	.	2dd
.	4G	.	.	.	.
2AA	2A	2e	.	.	2cc
=38	=38	=38	=38	=38	=38
1D	2D	2.f	0r	0r	2dd
.	2F	.	.	.	2a
.	.	4e	.	.	.
1r	2G	2d	.	.	2r
.	2A	2c	.	.	[2ff
=39	=39	=39	=39	=39	=39
1r	2D	1f	0r	0r	4ff]
.	.	.	.	.	4ee
.	2F	.	.	.	1dd
2r	2G	1e	.	.	.
2AA	2A	.	.	.	2cc#i
=40	=40	=40	=40	=40	=40
0BB	1.D	0d	0d	0r	0dd
.	[2G	.	.	.	.
=41	=41	=41	=41	=41	=41
0C	2G]	0r	0e	0r	0r
.	1E	.	.	.	.
.	[2A	.	.	.	.
=42	=42	=42	=42	=42	=42
1D	4A]	0r	0f	0r	2r
.	4G	.	.	.	.
.	1F	.	.	.	2a
1r	.	.	.	.	2.cc
.	4E	.	.	.	.
.	4D	.	.	.	4dd
=43	=43	=43	=43	=43	=43
0r	1C	2r	0g	0r	2ee
.	.	1c	.	.	2ee
.	1G	.	.	.	1dd
.	.	2B	.	.	.
=44	=44	=44	=44	=44	=44
2r	1C	2c	1r	0r	1cc
1C	.	2.e	.	.	.
.	1r	.	1d	.	2r
.	.	4d	.	.	.
2BB	.	[2d	.	.	[2ff
=45	=45	=45	=45	=45	=45
1C	1r	2d]	1e	0r	2ff]
.	.	1c	.	.	1ee
1D	2r	.	1f	.	.
.	2D	2B	.	.	2dd
=46	=46	=46	=46	=46	=46
1C	2.G	2c	2e	0r	1ee
.	.	4G	1g	.	.
.	4F	4A	.	.	.
1r	2E	4B	.	.	1r
.	.	4c	.	.	.
.	[2D	[2d	4f	.	.
.	.	.	4e	.	.
=47	=47	=47	=47	=47	=47
0r	4D]	2d]	2f	0r	1r
.	4E	.	.	.	.
.	2F	1c	2c	.	.
.	1D	.	1d	.	2r
.	.	2B	.	.	2ff
=48	=48	=48	=48	=48	=48
1.C	2.E	2.c	1c	0r	2.gg
.	4F	4d	.	.	4ff
.	2G	4e	1r	.	2ee
.	.	4c	.	.	.
2D	2F	2f	.	.	[2dd
=49	=49	=49	=49	=49	=49
1AA	1A	1e	1r	0r	2dd]
.	.	.	.	.	2cc#i
2.D	2.F	1d	1d	.	1dd
4E	4G	.	.	.	.
=50	=50	=50	=50	=50	=50
2F	2A	0r	1d	0r	1r
2G	2B	.	.	.	.
2E	2G	.	1c	.	2r
2C	[2c	.	.	.	2ee
=51	=51	=51	=51	=51	=51
1D	2c]	0r	1f	0r	1ff
.	2B	.	.	.	.
[1C	2c	.	1r	.	[1ee
.	4B	.	.	.	.
.	4A	.	.	.	.
=52	=52	=52	=52	=52	=52
2C]	2G	1r	1r	0r	2ee]
4BB	2A	.	.	.	4dd
4AA	.	.	.	.	4cc
1BB	1D	2r	1g	.	1dd
.	.	2B	.	.	.
=53	=53	=53	=53	=53	=53
0AA	2E	2.c	1.a	0r	0cc
.	2.F	.	.	.	.
.	.	4B	.	.	.
.	.	4A	.	.	.
.	4E	4G	.	.	.
.	2C	[2c	2g	.	.
=54	=54	=54	=54	=54	=54
1r	1D	2c]	1f	0r	1r
.	.	2B	.	.	.
1AA	1C	2c	1e	.	2.cc
.	.	[2A	.	.	.
.	.	.	.	.	8bL
.	.	.	.	.	8ccJ
=55	=55	=55	=55	=55	=55
1D	0r	2A]	1f	0r	4dd
.	.	.	.	.	4cc
.	.	2F	.	.	1ff
1C	.	1c	1g	.	.
.	.	.	.	.	2ee
=56	=56	=56	=56	=56	=56
1D	2r	1F	1.f	0r	2.ff
.	4D	.	.	.	.
.	4E	.	.	.	4ee
1r	4F	2r	.	.	2dd
.	4G	.	.	.	.
.	[2A	2A	2e	.	2cc
=57	=57	=57	=57	=57	=57
0r	2A]	1B	1d	0r	1b
.	2G#i	.	.	.	.
.	1A	1c	1c	.	[1a
=58	=58	=58	=58	=58	=58
0r	1F	2A	1d	0r	1a]
.	.	1d	.	.	.
.	1G	.	[1e	.	1r
.	.	4c	.	.	.
.	.	4B	.	.	.
=59	=59	=59	=59	=59	=59
1AA	1A	1c	1e]	0r	2r
.	.	.	.	.	2ee
2.D	2F	2d	2d	.	2.ff
.	4D	2A	2f	.	.
4C	4E	.	.	.	4ee
=60	=60	=60	=60	=60	=60
2BB-X	4F	2B-X	2.f	0r	2dd
.	4G	.	.	.	.
2AA	2A	2c	.	.	2cc
.	.	.	4e	.	.
2BB-i	1D	1F	2d	.	2dd
2D	.	.	2f	.	2a
=61	=61	=61	=61	=61	=61
2AA	2A	2c	2e	0r	2r
2BB	2D	2F	2d	.	2.ff
2AA	2A	2c	2c	.	.
.	.	.	.	.	4ee
2BB	2D	2F	2d	.	[2dd
=62	=62	=62	=62	=62	=62
1GG	1G	1B-i	0e	0r	2dd]
.	.	.	.	.	4cc#i
.	.	.	.	.	4b
1AA	1E	1A	.	.	1cc#i
=63	=63	=63	=63	=63	=63
0Dl	0Fl	0Al	0dl	0r	0ddl
=64||	=64||	=64||	=64||	=64||	=64||
*M2/1	*M2/1	*M2/1	*M2/1	*M2/1	*M2/1
*met(C)	*met(C)	*met(C)	*met(C)	*met(C)	*met(C)
!!section: Tertia pars: Et Ihesum
!!!OMD: Tertia pars: Et Ihesum
1r	1d	0r	0r	0r	0r
1D	1A	.	.	.	.
=65	=65	=65	=65	=65	=65
1AA	1c	0r	1a	0r	0r
1C	2c	.	1e	.	.
.	[2G	.	.	.	.
=66	=66	=66	=66	=66	=66
1BB	4G]	0r	1g	0r	1dd
.	4F	.	.	.	.
.	2D	.	.	.	.
2AA	2E	.	1a	.	2cc
[2D	2D	.	.	.	2dd
=67	=67	=67	=67	=67	=67
2D]	1A	1d	0r	0r	2a
2D	.	.	.	.	2ff
2C	2r	1A	.	.	2ee
2D	2D	.	.	.	2dd
=68	=68	=68	=68	=68	=68
1AA	1E	1c	0r	0r	1cc
1D	1F	2.d	.	.	2r
.	.	.	.	.	2a
.	.	4A	.	.	.
=69	=69	=69	=69	=69	=69
2r	4E	4B	0r	0r	2ee
.	4C	2c	.	.	.
2D	2D	.	.	.	2ff
.	.	4B	.	.	.
1E	2C	1c	.	.	1ee
.	2G	.	.	.	.
=70	=70	=70	=70	=70	=70
1F	2A	1r	0r	0r	2r
.	2F	.	.	.	2dd
4E	4G	2r	.	.	2gg
4C	2c	.	.	.	.
2D	.	2d	.	.	2ff
.	4B	.	.	.	.
=71	=71	=71	=71	=71	=71
2C	2c	1e	0r	0r	2ee
1c	2C	.	.	.	1cc
.	2F	1f	.	.	.
2B	2D	.	.	.	2dd
=72	=72	=72	=72	=72	=72
1c	2C	2e	0r	0r	1ee
.	2E	2c	.	.	.
1r	1D	1d	.	.	1a
=73	=73	=73	=73	=73	=73
1F	1A	1c	0r	0r	1r
2E	2G	1g	.	.	2r
2C	2c	.	.	.	2ee
=74	=74	=74	=74	=74	=74
2.D	2F	1.f	0r	0r	2.ff
.	4D	.	.	.	.
4C	4E	.	.	.	4ee
2D	4F	.	.	.	2dd
.	4G	.	.	.	.
2AA	2A	2e	.	.	2cc
=75	=75	=75	=75	=75	=75
1r	1D	2d	0r	0r	2dd
.	.	2f	.	.	2a
2r	2r	2g	.	.	2r
[2D	[2F	[2a	.	.	[2ff
=76	=76	=76	=76	=76	=76
4D]	4F]	4a]	1d	0r	4ff]
4E	4G	4g	.	.	4ee
4F	4A	2f	.	.	1dd
4D	4F	.	.	.	.
1A	1c	1e	1e	.	.
.	.	.	.	.	2cc
=77	=77	=77	=77	=77	=77
1D	1.F	2.d	0f	0r	1dd
.	.	4c	.	.	.
2r	.	2A	.	.	1r
2D	2D	[2B	.	.	.
=78	=78	=78	=78	=78	=78
2C	2E	2B]	1e	0r	0r
2AA	2C	1A	.	.	.
1BB	1D	.	1d	.	.
.	.	2G#i	.	.	.
=79	=79	=79	=79	=79	=79
0AA	1E	0A	0c	0r	2r
.	.	.	.	.	2a
.	2r	.	.	.	2.cc
.	[2E	.	.	.	.
.	.	.	.	.	4dd
=80	=80	=80	=80	=80	=80
0r	2E]	1r	1g	0r	2ee
.	2C	.	.	.	2ee
.	1D	2r	1f	.	1dd
.	.	2d	.	.	.
=81	=81	=81	=81	=81	=81
2r	1A	2e	1e	0r	1cc
2AA	.	2c	.	.	.
1D	2r	2f	1d	.	2r
.	2D	[2d	.	.	[2ff
=82	=82	=82	=82	=82	=82
2r	1A	2d]	1e	0r	2ff]
2AA	.	2c	.	.	1ee
1D	2r	1d	1f	.	.
.	2F	.	.	.	2dd
=83	=83	=83	=83	=83	=83
1C	1c	2G	1g	0r	1ee
.	.	2c	.	.	.
1D	2F	2A	[1f	.	1r
.	2D	2B	.	.	.
=84	=84	=84	=84	=84	=84
1AA	1A	1c	2f]	0r	1r
.	.	.	2e	.	.
1D	1F	1A	2d	.	2r
.	.	.	2a	.	2ff
=85	=85	=85	=85	=85	=85
0GG	1D	1d	2.b	0r	2.gg
.	.	.	4a	.	4ff
.	1G	1B	2g	.	2ee
.	.	.	2f	.	[2dd
=86	=86	=86	=86	=86	=86
1AA	1C	1c	1e	0r	2dd]
.	.	.	.	.	2cc
2D	2F	2A	[1d	.	1dd
2GG	[2B-i	[2d	.	.	.
=87	=87	=87	=87	=87	=87
1D	2B-]	2d]	1d]	0r	1r
.	1A	4c	.	.	.
.	.	4B	.	.	.
1E	.	1c	1r	.	2r
.	2G	.	.	.	2ee
=88	=88	=88	=88	=88	=88
1D	0A	1d	1d	0r	1ff
[1AA	.	[1c	[1a	.	[1ee
=89	=89	=89	=89	=89	=89
1AA]	1r	1c]	1a]	0r	2ee]
.	.	.	.	.	4dd
.	.	.	.	.	4cc
1r	1D	1r	1b	.	1dd
=90	=90	=90	=90	=90	=90
0AA	0A	1A	1a	0r	0cc
.	.	1e	1r	.	.
=91	=91	=91	=91	=91	=91
1E	1B	1e	1g	0r	1r
1F	[1A	2c	1f	.	2.cc
.	.	[2f	.	.	.
.	.	.	.	.	8bL
.	.	.	.	.	8ccJ
=92	=92	=92	=92	=92	=92
1D	1A]	4f]	1f	0r	4dd
.	.	4e	.	.	4cc
.	.	1d	.	.	1ff
1E	1G	.	1g	.	.
.	.	2c	.	.	2ee
=93	=93	=93	=93	=93	=93
1D	1F	2d	1r	0r	2.ff
.	.	2A	.	.	.
.	.	.	.	.	4ee
1r	1G	2.B	1d	.	2dd
.	.	.	.	.	2cc
.	.	4A	.	.	.
=94	=94	=94	=94	=94	=94
1r	1r	1G	1e	0r	1b
1D	1D	4F	1f	.	[1a
.	.	4G	.	.	.
.	.	4A	.	.	.
.	.	4B	.	.	.
=95	=95	=95	=95	=95	=95
1C	1E	1c	1e	0r	1a]
1D	1F	1A	1d	.	1r
=96	=96	=96	=96	=96	=96
2AA	1E	1r	1c	0r	2r
2C	.	.	.	.	2ee
2.BB-X	2.D	2r	1r	.	2.ff
.	.	[2f	.	.	.
4C	4C	.	.	.	4ee
=97	=97	=97	=97	=97	=97
2BB-i	2D	4f]	2r	0r	2dd
.	.	4d	.	.	.
2AA	2A	2e	2e	.	2cc
[1D	2F	2.d	2.f	.	2dd
.	4D	.	.	.	2a
.	4E	4c	4e	.	.
=98	=98	=98	=98	=98	=98
2D]	4F	2B	2d	0r	2r
.	4G	.	.	.	.
2AA	2A	2c	2c	.	2.ff
1BB	1D	1F	1d	.	.
.	.	.	.	.	4ee
.	.	.	.	.	[2dd
=99	=99	=99	=99	=99	=99
0AA	2A	2r	0e	0r	2dd]
.	4G	2.c	.	.	4cc#i
.	4F	.	.	.	4b
.	2E	.	.	.	1cc#i
.	.	4d	.	.	.
.	2A	2e	.	.	.
=100	=100	=100	=100	=100	=100
1D	2F	1A	[0dl	0r	[0ddl
.	2D	.	.	.	.
1GG	1G	1B	.	.	.
=101	=101	=101	=101	=101	=101
0Dl	0Fl	0Al	0d]	0r	0dd]
=102||	=102||	=102||	=102||	=102||	=102||
*M2/1	*M2/1	*M2/1	*M2/1	*M2/1	*M2/1
*met(C|)	*met(C|)	*met(C|)	*met(C|)	*met(C|)	*met(C|)
!!section: Quarta pars: O pya
!!!OMD: Quarta pars: O pya
0r	1A	1e	0e	0r	0r
.	1G	1g	.	.	.
=103	=103	=103	=103	=103	=103
1D	1.A	0f	0d	0a	0r
1F	.	.	.	.	.
.	2B	.	.	.	.
=104	=104	=104	=104	=104	=104
0C	1.c	1e	0e	0g	0r
.	.	[1c	.	.	.
.	2B	.	.	.	.
=105	=105	=105	=105	=105	=105
2.F	0A	1c]	0f	0a	0r
4E	.	.	.	.	.
1D	.	1d	.	.	.
=106	=106	=106	=106	=106	=106
0GG	0G	0B	0g	0b	0dd
=107	=107	=107	=107	=107	=107
1r	0r	[0A	[0a	1cc	1cc
1D	.	.	.	1r	1dd
=108	=108	=108	=108	=108	=108
1F	2.A	0A]	0a]	1cc	1a
.	4G	.	.	.	.
1F	2F	.	.	1dd	1ff
.	2D	.	.	.	.
=109	=109	=109	=109	=109	=109
1C	1E	0r	1g	1cc	1ee
1D	2F	.	1f	1a	1dd
.	2D	.	.	.	.
=110	=110	=110	=110	=110	=110
1.AA	1.A	0r	1e	0a	0cc
.	.	.	2.c	.	.
2BB	4G	.	.	.	.
.	4F	.	4d	.	.
=111	=111	=111	=111	=111	=111
1C	1E	0r	4e	1g	1r
.	.	.	4f	.	.
.	.	.	1e	.	.
1D	[1A	.	.	1f	1a
.	.	.	[2d	.	.
=112	=112	=112	=112	=112	=112
1AA	1A]	1e	2d]	0a	1ee
.	.	.	2c#i	.	.
1r	1D	1d	1d	.	1ff
=113	=113	=113	=113	=113	=113
0E	0G	0e	1B	0r	0ee
.	.	.	1c	.	.
=114	=114	=114	=114	=114	=114
0D	0F	0f	0d	0a	1r
.	.	.	.	.	1dd
=115	=115	=115	=115	=115	=115
1E	1E	1g	1G	1g	1gg
1F	1D	1a	1d	1r	1ff
=116	=116	=116	=116	=116	=116
1G	1E	1g	1B	1r	1ee
[1A	1F	1f	1A	1a	[1cc
=117	=117	=117	=117	=117	=117
2A]	2c	1e	1e	0a	1cc]
2G	2B	.	.	.	.
1F	1A	[1d	1f	.	1dd
=118	=118	=118	=118	=118	=118
0E	0G	2d]	1g	1b	0ee
.	.	4c#i	.	.	.
.	.	4B	.	.	.
.	.	1c#i	1e	1g	.
=119	=119	=119	=119	=119	=119
0D	0F	0d	1.f	0dd	[0al
.	.	.	2d	.	.
=120	=120	=120	=120	=120	=120
0AA	1E	2.e	2.a	0cc	0a_
.	.	4d	4g	.	.
.	[1A	2.c	2e	.	.
.	.	.	[2f	.	.
.	.	4B	.	.	.
=121	=121	=121	=121	=121	=121
0D	2A]	[0Al	4f]	0f	0a_
.	.	.	4e	.	.
.	2G	.	4d	.	.
.	.	.	4c	.	.
.	1F	.	1d	.	.
=122	=122	=122	=122	=122	=122
0AAl	0El	0A]	0el	0ccl	0a]
==	==	==	==	==	==
*-	*-	*-	*-	*-	*-
!!!system-decoration: s1,s2,s3,s4,s5,s6
!!!RDF**kern: i = editorial accidental
!!!RDF**kern: l = terminal long
!!!ENC: Max Blistain
!!!END: 2025/11/27
!!!EED: Benjamin Ory
!!!EEV: 2025/12/02
!!!YEC: Copyright 2025 Benjamin Ory, All Rights Reserved
!!!ONB: Translated from MusicXML on 2025/12/02